rospo-icon-theme-classic-common/22x22/places/folder-cyan-meocloud.svg

<svg height="22" width="22" xmlns="http://www.w3.org/2000/svg"><rect height="12" opacity=".2" rx="1" width="20" x="1" y="8.5"/><path d="m1 16c0 .554.446 1 1 1h18c .554 0 1-.446 1-1v-11c0-.554-.446-1-1-1h-10v-1c0-.554-.446-1-1-1h-7c-.554 0-1 .446-1 1" fill="#0096aa"/><rect height="12" opacity=".2" rx="1" width="20" x="1" y="7.5"/><rect fill="#e4e4e4" height="8" rx="1" width="16" x="3" y="6"/><rect fill="#00bcd4" height="12" rx="1" width="20" x="1" y="8"/><path d="m2 2c-.554 0-1 .446-1 1v .5c0-.554.446-1 1-1h7c .554 0 1 .446 1 1v-.5c0-.554-.446-1-1-1zm8 2v .5h10c .554 0 1 .446 1 1v-.5c0-.554-.446-1-1-1z" fill="#fff" opacity=".1"/><path d="m11.801 11c-.802 0-1.537.509-1.9007 1.312-.1589-.073-.3283-.113-.5-.113-.6667 0-1.2318.557-1.3203 1.301-.6464.25-1.079.931-1.0801 1.699 0 .994.716 1.801 1.5996 1.801h4.8005c.884 0 1.6-.807 1.6-1.801-.001-.764-.429-1.442-1.07-1.695.002-.034.002-.069.004-.104 0-1.325-.955-2.4-2.133-2.4zm0 1c .569 0 1.132.555 1.133 1.398v.002c-.001.015-.002.033-.002.041a1.0001 1.0001 0 0 0  .63.993c.213.083.437.377.438.765 0 .514-.324.801-.6.801h-4.8005c-.2752 0-.5986-.287-.5996-.799v-.002c.0014-.392.2271-.685.4414-.767a1.0001 1.0001 0 0 0  .6328-.815c.0365-.307.2151-.418.3262-.418.0226 0 .0495.007.082.022a1.0001 1.0001 0 0 0 1.3297-.496c.221-.488.609-.725.989-.725z" fill="#00424a"/></svg>

<svg xmlns="http://www.w3.org/2000/svg" width="22" height="22" version="1">
 <rect style="opacity:0.2" width="20" height="12" x="1" y="8.5" rx="1" ry="1"/>
 <path style="fill:#0096aa" d="M 1,16 C 1,16.554 1.446,17 2,17 H 20 C 20.554,17 21,16.554 21,16 V 5 C 21,4.446 20.554,4 20,4 H 10 V 3 C 10,2.446 9.554,2 9,2 H 2 C 1.446,2 1,2.446 1,3"/>
 <rect style="opacity:0.2" width="20" height="12" x="1" y="7.5" rx="1" ry="1"/>
 <rect style="fill:#dcdcdc" width="16" height="8" x="3" y="6" rx="1" ry="1"/>
 <rect style="fill:#00bcd4" width="20" height="12" x="1" y="8" rx="1" ry="1"/>
 <path style="opacity:0.1;fill:#ffffff" d="M 2,2 C 1.446,2 1,2.446 1,3 V 3.5 C 1,2.946 1.446,2.5 2,2.5 H 9 C 9.554,2.5 10,2.946 10,3.5 V 3 C 10,2.446 9.554,2 9,2 Z M 10,4 V 4.5 H 20 C 20.554,4.5 21,4.946 21,5.5 V 5 C 21,4.446 20.554,4 20,4 Z"/>
 <path style="fill:#00424A" d="M 11.801,11 C 10.999,11 10.264,11.509 9.9003,12.312 9.7414,12.239 9.572,12.199 9.4003,12.199 8.7336,12.199 8.1685,12.756 8.08,13.5 7.4336,13.75 7.001,14.431 6.9999,15.199 6.9999,16.193 7.7159,17 8.5995,17 H 13.4 C 14.284,17 15,16.193 15,15.199 14.999,14.435 14.571,13.757 13.93,13.504 13.932,13.47 13.932,13.435 13.934,13.4 13.934,12.075 12.979,11 11.801,11 Z M 11.801,12 C 12.37,12 12.933,12.555 12.934,13.398 V 13.4 C 12.933,13.415 12.932,13.433 12.932,13.441 A 1.0001,1.0001 0 0 0 13.562,14.434 C 13.775,14.517 13.999,14.811 14,15.199 14,15.713 13.676,16 13.4,16 H 8.5995 C 8.3243,16 8.0009,15.713 7.9999,15.201 V 15.199 C 8.0013,14.807 8.227,14.514 8.4413,14.432 A 1.0001,1.0001 0 0 0 9.0741,13.617 C 9.1106,13.31 9.2892,13.199 9.4003,13.199 9.4229,13.199 9.4498,13.206 9.4823,13.221 A 1.0001,1.0001 0 0 0 10.812,12.725 C 11.033,12.237 11.421,12 11.801,12 Z"/>
</svg>
